svgs/duotone/ballot-check.svg

<svg xmlns="http://www.w3.org/2000/svg" viewBox="0 0 448 512"><!-- Font Awesome Pro 6.0.0-alpha2 by @fontawesome - https://fontawesome.com License - https://fontawesome.com/license (Commercial License) --><defs><style>.fa-secondary{opacity:.4}</style></defs><path d="M384 0H64C28.654 0 0 28.654 0 64V448C0 483.346 28.654 512 64 512H384C419.346 512 448 483.346 448 448V64C448 28.654 419.346 0 384 0ZM64 112C64 103.25 71.25 96 80 96H112C120.75 96 128 103.25 128 112V144C128 152.75 120.75 160 112 160H80C71.25 160 64 152.75 64 144V112ZM128 400C128 408.75 120.75 416 112 416H80C71.25 416 64 408.75 64 400V368C64 359.25 71.25 352 80 352H112C120.75 352 128 359.25 128 368V400ZM163.312 227.312L107.312 283.312C104.188 286.438 100.094 288 96 288S87.812 286.438 84.688 283.312L60.688 259.312C54.438 253.062 54.438 242.937 60.688 236.688S77.063 230.438 83.312 236.688L96 249.375L140.688 204.688C146.938 198.438 157.063 198.438 163.312 204.688S169.562 221.062 163.312 227.312ZM368 400H208C199.164 400 192 392.836 192 384S199.164 368 208 368H368C376.836 368 384 375.164 384 384S376.836 400 368 400ZM368 272H208C199.164 272 192 264.836 192 256S199.164 240 208 240H368C376.836 240 384 247.164 384 256S376.836 272 368 272ZM368 144H208C199.164 144 192 136.836 192 128S199.164 112 208 112H368C376.836 112 384 119.164 384 128S376.836 144 368 144Z" class="fa-secondary"/><path d="M80 160H112C120.75 160 128 152.75 128 144V112C128 103.25 120.75 96 112 96H80C71.25 96 64 103.25 64 112V144C64 152.75 71.25 160 80 160ZM112 352H80C71.25 352 64 359.25 64 368V400C64 408.75 71.25 416 80 416H112C120.75 416 128 408.75 128 400V368C128 359.25 120.75 352 112 352ZM163.312 204.688C157.062 198.438 146.937 198.438 140.687 204.688L96 249.375L83.312 236.688C77.062 230.438 66.937 230.438 60.687 236.688S54.437 253.063 60.687 259.312L84.687 283.312C87.812 286.438 91.906 288 96 288S104.187 286.438 107.312 283.312L163.312 227.312C169.562 221.062 169.562 210.938 163.312 204.688Z" class="fa-primary"/></svg>

<svg xmlns="http://www.w3.org/2000/svg" viewBox="0 0 448 512"><!--! Font Awesome Pro 6.4.0 by @fontawesome - https://fontawesome.com License - https://fontawesome.com/license (Commercial License) Copyright 2023 Fonticons, Inc. --><defs><style>.fa-secondary{opacity:.4}</style></defs><path class="fa-primary" d="M64 112v32c0 8.8 7.2 16 16 16h32c8.8 0 16-7.2 16-16V112c0-8.8-7.2-16-16-16H80c-8.8 0-16 7.2-16 16zm0 256v32c0 8.8 7.2 16 16 16h32c8.8 0 16-7.2 16-16V368c0-8.8-7.2-16-16-16H80c-8.8 0-16 7.2-16 16zm91.3-132.7c6.2-6.2 6.2-16.4 0-22.6s-16.4-6.2-22.6 0L96 249.4 83.3 236.7c-6.2-6.2-16.4-6.2-22.6 0s-6.2 16.4 0 22.6l24 24c6.2 6.2 16.4 6.2 22.6 0l48-48z"/><path class="fa-secondary" d="M64 0C28.7 0 0 28.7 0 64V448c0 35.3 28.7 64 64 64H384c35.3 0 64-28.7 64-64V64c0-35.3-28.7-64-64-64H64zm0 112c0-8.8 7.2-16 16-16h32c8.8 0 16 7.2 16 16v32c0 8.8-7.2 16-16 16H80c-8.8 0-16-7.2-16-16V112zm0 256c0-8.8 7.2-16 16-16h32c8.8 0 16 7.2 16 16v32c0 8.8-7.2 16-16 16H80c-8.8 0-16-7.2-16-16V368zm144 0H368c8.8 0 16 7.2 16 16s-7.2 16-16 16H208c-8.8 0-16-7.2-16-16s7.2-16 16-16zM192 128c0-8.8 7.2-16 16-16H368c8.8 0 16 7.2 16 16s-7.2 16-16 16H208c-8.8 0-16-7.2-16-16zm16 112H368c8.8 0 16 7.2 16 16s-7.2 16-16 16H208c-8.8 0-16-7.2-16-16s7.2-16 16-16zm-52.7-27.3c6.2 6.2 6.2 16.4 0 22.6l-48 48c-6.2 6.2-16.4 6.2-22.6 0l-24-24c-6.2-6.2-6.2-16.4 0-22.6s16.4-6.2 22.6 0L96 249.4l36.7-36.7c6.2-6.2 16.4-6.2 22.6 0z"/></svg>
